X:1
T:James Gibb editions
T:Duca vi voglio dir - Gorzanis
%%score [ 1 2 3 ]
L:1/8
Q:1/4=90
M:4/4
K:C
V:1 treble-8 nm="Tenor I" snm="T I"
V:2 treble-8 nm="Tenor II" snm="T II"
V:3 bass nm="Bass" snm="B"
V:1
"^Giacomo Gorzanis\n(1520-79)" d2 de d2 c2 | B2 z d"^Duca vi voglio dir" dBcd | e2 d c2 d B2 | A4 | %4
w: Du- ca vi vo- glio|dir, Du- ca vi vo- glio|dir u- na no- vel-|la|
w: ||||
w: Pur mar- tel- la- va~~o-|gnor, Pur mar- tel- la- va~~o-|gnor con la fa- vel-|la|
 A2 AA |[M:4/4][K:treble-8] A2 A2 d2 d2 | c2 c2 B2 z2 | A2 AA A2 A2 | d2 d2 c2 c2 || %9
w: Che m'in- tra-|ven- ne già tra|quat- tro dì,|che m'in- tra- ven- ne|già tra quat- tro|
w: |||||
w: Di- cen- do|su che fai che|l'è già dì,|di- cen- do su che|fai che l'è già|
[M:3/4] B2 z2 e2 | e4 e2 |[M:3/4][K:treble-8] d4 d2 | e4 c2 | B4 B2 | A2 z2 e2 | e4 e2 | d4 d2 | %17
w: dì *||cea no|no e|lei sì|sì, ch'i-|o di-|cea no|
w: * Ch'i-|o di-|||||||
w: dì, *||||||||
 e4 c2 | B4 B2 | A6 :| %20
w: no e|lei sì|sì.|
w: |||
w: |||
V:2
 B2 Bc B2 A2 | ^G2 z B BGAB | c2 B A2 A (A^G) | A4 | ^F2 FF |[M:4/4][K:treble-8] ^F2 F2 B2 B2 | %6
w: Du- ca vi vo- glio|dir, Du- ca vi vo- glio|dir u- na no- vel\- *|la|Che m'in- tra-|ven- ne già tra|
w: ||||||
w: Pur mar- tel- la- va~~o-|gnor, Pur mar- tel- la- va~~o-|gnor con la fa- vel\- *|la|Di- cen- do|su che fai che|
 A2 A2 ^G2 z2 | ^F2 FF F2 F2 | B2 B2 A2 A2 ||[M:3/4] ^G2 z2 c2 | c4 c2 |[M:3/4][K:treble-8] B4 B2 | %12
w: quat- tro dì,|che m'in- tra- ven- ne|già tra quat- tro|dì *||cea no|
w: |||* Ch'i-|o di-||
w: l'è già dì,|di- cen- do su che|fai che l'è già|dì, *|||
 c4 A2 | A4 ^G2 | A2 z2 c2 | c4 c2 | B4 B2 | c4 A2 | A4 ^G2 | A6 :| %20
w: no e|lei sì|sì, ch'i-|o di-|cea no|no e|lei sì|sì.|
w: ||||||||
w: ||||||||
V:3
 G,2 G,C, G,2 F,2 | E,2 z G, G,E,F,G, | C,2 G, F,2 D, E,2 | A,,4 | D,2 D,D, | %5
w: Du- ca vi vo- glio|dir, Du- ca vi vo- glio|dir u- na no- vel-|la|Che m'in- tra-|
w: |||||
w: Pur mar- tel- la- va~~o-|gnor, Pur mar- tel- la- va~~o-|gnor con la fa- vel-|la|Di- cen- do|
[M:4/4] D,2 D,2 G,2 G,,2 | (A,,B,,) (C,D,) E,2 z2 | D,2 D,D, D,2 D,2 | G,2 G,,2 (A,,B,,) (C,D,) || %9
w: ven- ne già tra|quat\- * tro * dì,|che m'in- tra- ven- ne|già tra quat\- * tro *|
w: ||||
w: su che fai che|l'è * già * dì,|di- cen- do su che|fai che l'è * già *|
[M:3/4] E,2 z2 C,2 | C,4 C,2 |[M:3/4] G,4 G,2 | C,4 A,,2 | E,4 E,2 | A,,2 z2 E,2 | C,4 C,2 | %16
w: dì *||cea no|no e|lei sì|sì, ch'i-|o di-|
w: * Ch'i-|o di-||||||
w: dì, *|||||||
 G,4 G,2 | C,4 A,,2 | E,4 E,2 | A,,6 :| %20
w: cea no|no e|lei sì|sì.|
w: ||||
w: ||||

